public/icons/map/volleyball.svg

<svg xmlns="http://www.w3.org/2000/svg" xmlns:xlink="http://www.w3.org/1999/xlink" xml:space="preserve" width="40" height="40"><defs><path id="a" d="M0 0h40v40H0z"/></defs><clipPath id="b"><use xlink:href="#a" overflow="visible"/></clipPath><path fill="#FFF" d="M15.566 21.881a.286.286 0 0 1-.269-.38L21.473 3.98a.286.286 0 0 1 .538.189l-6.176 17.522a.283.283 0 0 1-.269.19M15.887 32.411a.284.284 0 0 1-.269-.38l5.855-16.659a.286.286 0 0 1 .539.189l-5.856 16.66a.284.284 0 0 1-.269.19M15.887 26.817a.285.285 0 0 1-.269-.38l5.855-16.659a.286.286 0 0 1 .539.19l-5.856 16.659a.284.284 0 0 1-.269.19M32.775 38.554h-1.121v-.475h.78l.248-.739.451.152zM29.683 38.554h-1.972v-.475h1.972v.475zm-3.944 0h-1.973v-.475h1.973v.475zm-3.944 0h-1.972v-.475h1.972v.475zm-3.944 0h-1.972v-.475h1.972v.475zm-3.943 0h-1.972v-.475h1.972v.475zm-3.945 0H7.991v-.475h1.972v.475zm-3.944 0H4.047v-.475h1.972v.475zM2.076 38.554H.795l.408-1.214.45.152-.197.587h.62zM2.256 35.699l-.45-.15.602-1.793.45.15-.602 1.793zm1.204-3.585-.45-.15.603-1.793.45.15-.603 1.793zm1.205-3.585-.45-.15.603-1.793.45.15-.603 1.793zm1.205-3.585-.45-.15.602-1.793.451.15-.603 1.793zM7.075 21.359l-.45-.15.357-1.063h1.12v.475h-.779z" clip-path="url(#b)"/><path fill="#FFF" d="M35.71 20.621h-1.973v-.475h1.973v.475zm-3.944 0h-1.972v-.475h1.972v.475zm-3.944 0H25.85v-.475h1.973v.475zm-3.944 0h-1.972v-.475h1.972v.475zm-3.944 0h-1.972v-.475h1.972v.475zm-3.943 0h-1.972v-.475h1.972v.475zm-3.945 0h-1.972v-.475h1.972v.475zM38.554 21.359l-.45-.15.197-.588h-.619v-.475h1.28zM33.735 35.699l-.45-.15.602-1.793.45.15-.602 1.793zm1.205-3.585-.45-.15.602-1.793.45.15-.602 1.793zm1.205-3.585-.449-.15.602-1.793.45.15-.603 1.793zm1.205-3.585-.449-.15.601-1.793.452.15-.604 1.793z" clip-path="url(#b)"/><path fill="#BE7F4C" d="M15.577 20.664a.77.77 0 0 1 .771.771v17.727h-1.542V21.435a.77.77 0 0 1 .771-.771" clip-path="url(#b)"/><path fill="#81452B" d="M14.806 33.38h1.541v1.541h-1.541zM15.577 20.664a.77.77 0 0 1 .771.771v.771h-1.542v-.771a.77.77 0 0 1 .771-.771" clip-path="url(#b)"/><path fill="#BE7F4C" d="M21.742 2.167a.77.77 0 0 1 .771.771v17.726h-1.542V2.938a.771.771 0 0 1 .771-.771" clip-path="url(#b)"/><path fill="#81452B" d="M20.971 14.884h1.542v1.542h-1.542zM21.742 2.167a.77.77 0 0 1 .771.771v.77h-1.542v-.77a.771.771 0 0 1 .771-.771" clip-path="url(#b)"/><path fill="#FFF" d="M17.672 27.138a.237.237 0 0 1-.238-.236V15.468a.238.238 0 1 1 .475 0v11.434c0 .13-.106.236-.237.236M19.6 21.485a.237.237 0 0 1-.238-.236V9.991a.238.238 0 0 1 .475 0v11.258a.236.236 0 0 1-.237.236" clip-path="url(#b)"/></svg>

<?xml version="1.0" encoding="utf-8"?>
<!-- Generator: Adobe Illustrator 16.0.0, SVG Export Plug-In . SVG Version: 6.00 Build 0)  -->
<!DOCTYPE svg PUBLIC "-//W3C//DTD SVG 1.1//EN" "http://www.w3.org/Graphics/SVG/1.1/DTD/svg11.dtd">
<svg version="1.1" id="Layer_1" xmlns="http://www.w3.org/2000/svg" xmlns:xlink="http://www.w3.org/1999/xlink" x="0px" y="0px"
	 width="40px" height="40px" viewBox="0 0 40 40" enable-background="new 0 0 40 40" xml:space="preserve">
<g>
	<defs>
		<rect id="SVGID_1_" width="40" height="40"/>
	</defs>
	<clipPath id="SVGID_2_">
		<use xlink:href="#SVGID_1_"  overflow="visible"/>
	</clipPath>
	<path clip-path="url(#SVGID_2_)" fill="#FFFFFF" d="M15.566,21.881c-0.031,0-0.063-0.005-0.095-0.016
		c-0.148-0.052-0.226-0.215-0.174-0.364L21.473,3.98c0.053-0.149,0.216-0.226,0.364-0.174c0.148,0.052,0.226,0.215,0.174,0.363
		l-6.176,17.522C15.794,21.809,15.684,21.881,15.566,21.881"/>
	<path clip-path="url(#SVGID_2_)" fill="#FFFFFF" d="M15.887,32.411c-0.031,0-0.063-0.005-0.095-0.017
		c-0.148-0.051-0.226-0.214-0.174-0.363l5.855-16.659c0.053-0.148,0.215-0.226,0.364-0.174c0.147,0.052,0.226,0.215,0.175,0.363
		l-5.856,16.66C16.115,32.339,16.004,32.411,15.887,32.411"/>
	<path clip-path="url(#SVGID_2_)" fill="#FFFFFF" d="M15.887,26.817c-0.031,0-0.063-0.005-0.095-0.016
		c-0.148-0.052-0.226-0.214-0.174-0.364l5.855-16.659c0.053-0.148,0.215-0.226,0.364-0.174c0.147,0.052,0.226,0.215,0.175,0.364
		l-5.856,16.659C16.115,26.745,16.004,26.817,15.887,26.817"/>
	<polygon clip-path="url(#SVGID_2_)" fill="#FFFFFF" points="32.775,38.554 31.654,38.554 31.654,38.079 32.434,38.079 
		32.682,37.34 33.133,37.492 	"/>
	<path clip-path="url(#SVGID_2_)" fill="#FFFFFF" d="M29.683,38.554h-1.972v-0.475h1.972V38.554z M25.739,38.554h-1.973v-0.475
		h1.973V38.554z M21.795,38.554h-1.972v-0.475h1.972V38.554z M17.851,38.554h-1.972v-0.475h1.972V38.554z M13.908,38.554h-1.972
		v-0.475h1.972V38.554z M9.963,38.554H7.991v-0.475h1.972V38.554z M6.019,38.554H4.047v-0.475h1.972V38.554z"/>
	<polygon clip-path="url(#SVGID_2_)" fill="#FFFFFF" points="2.076,38.554 0.795,38.554 1.203,37.34 1.653,37.492 1.456,38.079 
		2.076,38.079 	"/>
	<path clip-path="url(#SVGID_2_)" fill="#FFFFFF" d="M2.256,35.699l-0.45-0.15l0.602-1.793l0.45,0.15L2.256,35.699z M3.46,32.114
		l-0.45-0.15l0.603-1.793l0.45,0.15L3.46,32.114z M4.665,28.529l-0.45-0.15l0.603-1.793l0.45,0.15L4.665,28.529z M5.87,24.944
		l-0.45-0.15l0.602-1.793l0.451,0.15L5.87,24.944z"/>
	<polygon clip-path="url(#SVGID_2_)" fill="#FFFFFF" points="7.075,21.359 6.625,21.209 6.982,20.146 8.102,20.146 8.102,20.621 
		7.323,20.621 	"/>
	<path clip-path="url(#SVGID_2_)" fill="#FFFFFF" d="M35.71,20.621h-1.973v-0.475h1.973V20.621z M31.766,20.621h-1.972v-0.475h1.972
		V20.621z M27.822,20.621H25.85v-0.475h1.973V20.621z M23.878,20.621h-1.972v-0.475h1.972V20.621z M19.934,20.621h-1.972v-0.475
		h1.972V20.621z M15.991,20.621h-1.972v-0.475h1.972V20.621z M12.046,20.621h-1.972v-0.475h1.972V20.621z"/>
	<polygon clip-path="url(#SVGID_2_)" fill="#FFFFFF" points="38.554,21.359 38.104,21.209 38.301,20.621 37.682,20.621 
		37.682,20.146 38.962,20.146 	"/>
	<path clip-path="url(#SVGID_2_)" fill="#FFFFFF" d="M33.735,35.699l-0.45-0.15l0.602-1.793l0.45,0.15L33.735,35.699z M34.94,32.114
		l-0.45-0.15l0.602-1.793l0.45,0.15L34.94,32.114z M36.145,28.529l-0.449-0.15l0.602-1.793l0.45,0.15L36.145,28.529z M37.35,24.944
		l-0.449-0.15l0.601-1.793l0.452,0.15L37.35,24.944z"/>
	<path clip-path="url(#SVGID_2_)" fill="#BE7F4C" d="M15.577,20.664c0.426,0,0.771,0.345,0.771,0.771v17.727h-1.542V21.435
		C14.806,21.009,15.15,20.664,15.577,20.664"/>
	<rect x="14.806" y="33.38" clip-path="url(#SVGID_2_)" fill="#81452B" width="1.541" height="1.541"/>
	<path clip-path="url(#SVGID_2_)" fill="#81452B" d="M15.577,20.664c0.426,0,0.771,0.345,0.771,0.771v0.771h-1.542v-0.771
		C14.806,21.009,15.15,20.664,15.577,20.664"/>
	<path clip-path="url(#SVGID_2_)" fill="#BE7F4C" d="M21.742,2.167c0.426,0,0.771,0.345,0.771,0.771v17.726h-1.542V2.938
		C20.972,2.512,21.316,2.167,21.742,2.167"/>
	<rect x="20.971" y="14.884" clip-path="url(#SVGID_2_)" fill="#81452B" width="1.542" height="1.542"/>
	<path clip-path="url(#SVGID_2_)" fill="#81452B" d="M21.742,2.167c0.426,0,0.771,0.345,0.771,0.771v0.77h-1.542v-0.77
		C20.972,2.512,21.316,2.167,21.742,2.167"/>
	<path clip-path="url(#SVGID_2_)" fill="#FFFFFF" d="M17.672,27.138c-0.131,0-0.238-0.105-0.238-0.236V15.468
		c0-0.132,0.107-0.238,0.238-0.238c0.131,0,0.237,0.106,0.237,0.238v11.434C17.909,27.032,17.803,27.138,17.672,27.138"/>
	<path clip-path="url(#SVGID_2_)" fill="#FFFFFF" d="M19.6,21.485c-0.131,0-0.238-0.105-0.238-0.236V9.991
		c0-0.131,0.107-0.237,0.238-0.237s0.237,0.106,0.237,0.237v11.258C19.837,21.38,19.731,21.485,19.6,21.485"/>
</g>
</svg>
